X: 37
T:Girl I Left Behind Me,The. HS.37
M:C|
L:1/8
S:Henry Stables MS,Cumbria,late19thC
R:misc.
O:Walthwaite,nr.Ambleside.
A:England
Z:vmp.Chris Partington
K:G
gf|e2d2cBAG|B2G2E2F2|G2G2G2B2|d4B2gf|!
e2d2cBAG|B2G2E2G2|F2A2D2F2|G4G2::!
G2|B2d2e2f2|g2d2B2G2|B2d2e2f2|g4f2g2|!
e2d2cBAG|B2G2E2G2|F2A2D2F2|G4G2:||
